!!!COM: Gonzaga, Francisca
!!!CDT: 1847/10/17-1935/02/28
!!!OTL: Julia
**kern	**kern
*part1	*part1
*staff2	*staff1
*I"Piano	*
*clefF4	*clefG2
*k[b-]	*k[b-]
*M2/4	*M2/4
=1	=1
*F:	*
16FKL	16fKL 16a 16cc
8A 8c	8f 8dd
16AJk 16c	16aJk 16cc
8CL	8aL 8cc 8gg
8FJ 8A 8c	8aJ 8cc 8ff
=	=
16EKL	8.b-L 8.ee 8.bb-
8B- 8c 8e	.
16B-Jk 16c 16e	16b-^Jk 16ee 16bb-
16CKL	16r
8B- 8c 8e	8dddL
16B-Jk 16c 16e	16cccJk
=	=
16EKL	16bb-KL
8B- 8c 8e	8gg
16B-Jk 16c 16e	16ccJk
8CL	8aaL
8B-J 8c 8e	8b-J 8gg
=	=
16FKL	8.aL 8.cc
8A 8c 8f	.
16AJk 16c 16f	16aJk 16cc
16CKL	16r
8A 8c 8f	8aL 8dd
16AJk 16c 16f	16aJk 16cc
=	=
16FKL	16aKL 16cc 16gg
8A 8c 8f	8a 8cc 8ff
16AJk 16c 16f	16aJk 16cc
8CL	8aL 8cc 8gg
8AJ 8c 8f	8aJ 8cc 8ff
=	=
16GGKL	8.gL 8.cc 8.ff
8G 8c 8e	.
16GJk 16c 16e	16gJk 16cc 16ee
16GGKL	16r
8G 8c 8e	8gL 8cc 8ff
16GJk 16c 16e	16gJk 16cc 16ee
!!linebreak:original
=	=
16DDKL	16f#XKL
8F#X 8c 8d	8cc 8ee
16F#Jk 16c 16d	16f#Jk 16cc 16dd
8GGL	8fnL 8bn 8ee
8GJ 8Bn 8f	8ddJ
=	=
4C 4G 4B-	(16ccLL 16aa
.	16gg
.	16ee
.	16ccJJ)
4r	(16b-LL
.	16g
.	16e
.	16cJJ)
=	=
16FFKL	16fKL 16a 16cc
8F 8A 8c	8f 8dd
16FJk 16A 16c	16aJk 16cc
8CL	8aL 8cc 8gg
8FJ 8A 8c	8aJ 8cc 8ff
=	=
16EKL	8.b-L 8.ee 8.bb-
8B- 8c 8e	.
16B-Jk 16c 16e	16b-^Jk 16ee 16bb-
16CKL	16r
8B- 8c 8e	8dddL
16B-Jk 16c 16e	16cccJk
=	=
16EKL	16bb-KL
8B- 8c 8e	8gg
16B-Jk 16c 16e	16ccJk
8CL	8aaL
8B-J 8c 8e	8b-J 8gg
=	=
16FKL	8.aL 8.cc
8A 8c 8f	.
16AJk 16c 16f	16aJk 16cc
16CKL	16r
8A 8c 8f	8ggL
16AJk 16c 16f	16ffJk
!!linebreak:original
=	=
16BB-KL	16b-KL 16ee
8B- 8d 8g	8b- 8dd
16B-Jk 16d 16g	16b-Jk 16dd
8BB-L	8ddL 8ddd
8B-J 8d 8g	8eeJ 8eee
=	=
16CKL	8.ffL 8.fff
8A 8c 8f	.
16AJk 16c 16f	16aaJk
8CL	8eeeL
8AJ 8c 8f	8dddJ
=	=
16CKL	16cccKL
8B- 8c 8e	8bb-
16B-Jk 16c 16e	16ccJk
8CL	8ccL 8aa
8B-J 8c 8e	8b-J 8gg
=	=
16FFKL	4a 4ff
8A 8c 8f	.
16AJk 16c 16f	.
8r	8r
8FF	8ff 8aa 8ccc 8fff
=||	=||
*d:	*
!	!LO:TX:a:t=Fine
16AAKL	16gKL 16a
8G 8A 8c#X	8g 8b-
16GJk 16A 16c#	16gJk 16a
8AAL	8gL 8cc#X 8ff
8GJ 8A 8c#	8gJ 8cc# 8ee
=	=
16DKL	16fKL 16a
8F 8A 8d	8b-
16FJk 16A 16d	16fJk 16a
8AAL	8fL 8a 8ee
8FJ 8A 8d	8fJ 8a 8dd
=	=
16EKL	16gKL 16cc#X
8G 8A 8c#X	8ee
16GJk 16A 16c#	16ggJk
8AAL	8cc#L 8bb-
8GJ 8A 8c#	8aaJ
!!linebreak:original
=	=
16DKL	16gg#XKL
8F 8A 8d	8aa
16FJk 16A 16d	16ddJk
8DL	8ddd
8FJ 8A 8d	8r
=	=
*F:	*
16BB-KL	16cccKL
8B- 8d 8g	8bb-
16B-Jk 16d 16g	16ddJk
8BB-L	8cccL
8B-J 8d-X 8g	8dd-XJ 8bb-
=	=
16CKL	16ccKL 16bb-
8A 8c 8f	8aa
16AJk 16c 16f	16ccJk
8CL	8bb-L
8AJ 8c 8f	8aaJ
=	=
16GGKL	16bnKL 16aa
8G 8Bn 8f	8gg
16GJk 16B 16f	16bJk
8CL	8b-XL 8aa
8B-XJ 8c 8e	8b-J 8gg
=	=
16FFKL	16aKL 16gg
8A 8c 8f	8a 8ff
16AJk 16c 16f	16b-Jk 16dd
8FFL	4a 4cc
8AJ 8c 8f	.
=	=
*d:	*
16AAKL	16gKL 16a
8G 8A 8c#X	8g 8b-
16GJk 16A 16c#	16gJk 16a
8AAL	8gL 8cc#X 8ff
8GJ 8A 8c#	8gJ 8cc# 8ee
=	=
16DKL	16fKL 16a
8F 8A 8d	8b-
16FJk 16A 16d	16fJk 16a
8AAL	8fL 8a 8ee
8FJ 8A 8d	8fJ 8a 8dd
!!linebreak:original
=	=
16EKL	16gKL 16cc#X
8G 8A 8c#X	8ee
16GJk 16A 16c#	16ggJk
8AAL	8cc#L 8bb-
8GJ 8A 8c#	8aaJ
=	=
16DKL	16gg#XKL
8F 8A 8d	8aa
16FJk 16A 16d	16ddJk
8DL	8ddd
8FJ 8A 8d	8r
=	=
*F:	*
16BB-KL	16cccKL
8B- 8d 8g	8bb-
16B-Jk 16d 16g	16ddJk
8BB-L	8cccL
8B-J 8d-X 8g	8dd-XJ 8bb-
=	=
16CKL	16ccKL 16bb-
8A 8c 8f	8aa
16AJk 16c 16f	16ccJk
8CL	8bb-L
8AJ 8c 8f	8aaJ
=	=
16BB-KL	16ggKL
8B- 8d 8g	8ff#X
16B-Jk 16d 16g	16ggJk
8CL	8eeL 8ccc
8B-J 8c 8e	8b-J 8ee
=	=
16FKL	8a 8ff
8A 8c 8f	.
.	8r
16AJk 16c 16f	.
8FF	8fff
8r	8r
=||	=||
16FKL	16fKL 16a 16cc
8A 8c	8f 8dd
16AJk 16c	16aJk 16cc
8CL	8aL 8cc 8gg
8FJ 8A 8c	8aJ 8cc 8ff
!!pagebreak:original
=	=
16EKL	8.b-L 8.ee 8.bb-
8B- 8c 8e	.
16B-Jk 16c 16e	16b-^Jk 16ee 16bb-
16CKL	16r
8B- 8c 8e	8dddL
16B-Jk 16c 16e	16cccJk
=	=
16EKL	16bb-KL
8B- 8c 8e	8gg
16B-Jk 16c 16e	16ccJk
8CL	8aaL
8B-J 8c 8e	8b-J 8gg
=	=
16FKL	8.aL 8.cc
8A 8c 8f	.
16AJk 16c 16f	16aJk 16cc
16CKL	16r
8A 8c 8f	8aL 8dd
16AJk 16c 16f	16aJk 16cc
=	=
16FKL	16aKL 16cc 16gg
8A 8c 8f	8a 8cc 8ff
16AJk 16c 16f	16aJk 16cc
8CL	8aL 8cc 8gg
8AJ 8c 8f	8aJ 8cc 8ff
=	=
16GGKL	8.gL 8.cc 8.ff
8G 8c 8e	.
16GJk 16c 16e	16gJk 16cc 16ee
16GGKL	16r
8G 8c 8e	8gL 8cc 8ff
16GJk 16c 16e	16gJk 16cc 16ee
=	=
16DDKL	16f#XKL
8F#X 8c 8d	8cc 8ee
16F#Jk 16c 16d	16f#Jk 16cc 16dd
8GGL	8fnL 8bn 8ee
8GJ 8Bn 8f	8ddJ
!!linebreak:original
=	=
4C 4G 4B-	(16ccLL 16aa
.	16gg
.	16ee
.	16ccJJ)
4r	(16b-LL
.	16g
.	16e
.	16cJJ)
=	=
16FFKL	16fKL 16a 16cc
8F 8A 8c	8f 8dd
16FJk 16A 16c	16aJk 16cc
8CL	8aL 8cc 8gg
8FJ 8A 8c	8aJ 8cc 8ff
=	=
16EKL	8.b-L 8.ee 8.bb-
8B- 8c 8e	.
16B-Jk 16c 16e	16b-^Jk 16ee 16bb-
16CKL	16r
8B- 8c 8e	8dddL
16B-Jk 16c 16e	16cccJk
=	=
16EKL	16bb-KL
8B- 8c 8e	8gg
16B-Jk 16c 16e	16ccJk
8CL	8aaL
8B-J 8c 8e	8b-J 8gg
=	=
16FKL	8.aL 8.cc
8A 8c 8f	.
16AJk 16c 16f	16aJk 16cc
16CKL	16r
8A 8c 8f	8ggL
16AJk 16c 16f	16ffJk
=	=
16BB-KL	16b-KL 16ee
8B- 8d 8g	8b- 8dd
16B-Jk 16d 16g	16b-Jk 16dd
8BB-L	8ddL 8ddd
8B-J 8d 8g	8eeJ 8eee
=	=
16CKL	8.ffL 8.fff
8A 8c 8f	.
16AJk 16c 16f	16aaJk
8CL	8eeeL
8AJ 8c 8f	8dddJ
!!linebreak:original
=	=
16CKL	16cccKL
8B- 8c 8e	8bb-
16B-Jk 16c 16e	16ccJk
8CL	8ccL 8aa
8B-J 8c 8e	8b-J 8gg
=	=
16FFKL	4a 4ff
8A 8c 8f	.
16AJk 16c 16f	.
8r	8r
8FF	8ff 8aa 8ccc 8fff
=||	=||
*B-:	*
*k[b-e-]	*k[b-e-]
16BB-KL	16dKL 16f
8B-	8d 8f
16FJk	16dJk 16f
16E-KL	16e-KL 16f
8A	8e- 8f
16FJk	16e-Jk 16f
=	=
16BB-KL	16dKL 16f
8B-	8d 8f
16FJk	16dJk 16f
8DL	8dL 8b-
8B-J	8gJ
=	=
16CKL	16e-KL 16f
8E- 8A	8e- 8f
16E-Jk 16A	16cJk
8FFL	8dL
8E-J 8A	8cJ 8e-
=	=
16BB-KL	4d^ 4f
8B-	.
16FJk	.
16DKL	4r
8B-	.
16FJk	.
!!linebreak:original
=	=
16BB-KL	16dKL 16f
8B-	8d 8f
16FJk	16dJk 16f
16E-KL	16e-KL 16f
8A	8e- 8f
16FJk	16e-Jk 16f
=	=
16BB-KL	16dKL 16f
8B-	8d 8f
16FJk	16dJk 16f
8DL	8dL 8b-
8B-J	8dJ 8b-
=	=
16CKL	16cKL 16a
8F 8A	8f
16CJk	16aJk
8CCL	8ccL
8CJ	8B-J 8g
=	=
16FFKL	4A^ 4f
8En	.
16E-XJk	.
8CL	4r
8FFJ	.
=	=
16BB-KL	16ddKL 16ff
8B-	8dd 8ff
16FJk	16ddJk 16ff
16E-KL	16ee-KL 16ff
8A	8ee- 8ff
16FJk	16ee-Jk 16ff
=	=
16DKL	16ddKL 16ff
8B-	8dd 8ff
16FJk	16ddJk 16ff
8DL	8ddL 8bb-
8B-J	8ggJ
!!linebreak:original
=	=
16CKL	16ee-KL 16ff
8E- 8F 8A	8ee- 8ff
16E-Jk 16F 16A	16ccJk
8FFL	8ddL
8E-J 8F 8A	8ccJ
=	=
16BB-KL	4f^ 4ff
8F 8B- 8d	.
16FJk 16B- 16d	.
8DL	4r
8FJ 8B- 8d	.
=	=
8.E-L	16r
.	16ff#XLL
.	16aa
16GJk 16c 16e-	16ggJJ
8E-L	16ddLL
.	16ffn
8GJ 8c 8e-	16ee-
.	16fJJ
=	=
16DKL	8dd^ 8ff
8F 8B- 8d	.
.	8r
16FJk 16B- 16d	.
8FFL	4dd^ 4ff
8FJ 8B- 8d	.
=	=
8CL	16r
.	16ccLL
8E-J 8F 8A	16dd
.	16ccJJ
8FFL	8fL
8FJ 8A 8c	8ffJ
=	=
16BB-KL	8b-
8F 8B- 8d	.
.	8r
16FJk 16B- 16d	.
4BBB- 4BB-	4b- 4dd 4ff 4bb-
==	==
*-	*-
!!!system-decoration: {(s1,s2)}
!!!AGN: Tango
!!!EED: Florian Moldaschl
!!!END: 2025/12/23
!!!ENC: Florian Moldaschl
!!!EEV: 2025/12/23
!!!title: @{OPR}, @{SCT} №@{ONM}